!!!OTL: "Die Kirchweihe" AM SUNDA IS KIRTA
!!!ARE: Europa, Mitteleuropa, Oesterreich
!!!SCT: Z1341
!!!YEM: Copyright 1995, estate of Helmut Schaffrath.
**kern
*ICvox
*Ivox
*M3/4
*k[b-]
*F:
{8A
8B-
=1
8A
8c
4f
4f
=2
8f
8dd
4.cc}
{8f
=3
8e
8ee
4ee
4ee
=4
8f
8ff
8ff
8cc}
{4f
=5
8A
8c
4f
4f
=6
8f
8dd
4.cc}
{8f
=7
8e
8dd
4dd
8cc
8e
=8
4f
4r}
{4f
=9
8e
8g
4g
4g
=10
8cc
8ee
4.bb-}
{8ee
=11
8ff
8aa
4cc
8cc
8b-
=12
8a
8cc
4f}
{4f
=13
8e
8g
4g
4g
=14
8cc
8ee
4.bb-}
{8ee
=15
8ff
8aa
4cc
8b-
8e
=16
4f
8a
8cc
8ff
8aa
=17
4f
4r}
==
!!!AGN: Zech -, Schalks - Lied
!!!ONB: ESAC (Essen Associative Code) Database: ZUCCAL
!!!AMT: simple triple
!!!AIN: vox
!!!EED: Helmut Schaffrath
!!!EEV: 1.0
*-
